!!!COM: Robert Franz
!!!CNT: Deutscher
!!!TXO: Deutsche 
!!!OTL: Waldfahrt
!!!OPS: Op. 14
!!!ONM: No. 3
!!!ONB: Original key: G major
!!!LYR: F. Korner
!!!ENC: Brian Bice
!!!YOR: Vocal Album, G. Schirmer, Inc., 1907
!!!ODT: 1860/
!!NB: Vocal melody and text only encoded.
**kern	**silbe
*clefG2	*
*k[f#c#g#d#]	*
*M3/8	*
=4	=4
4r	.
{8g#	{Im
=5	=5
4b	Wald',
8b	im
=6	=6
4e	Wald'
8g#	ist's
=7	=7
4b	frisch
8b	und
=8	=8
4g#}	gru2n,}
{(16e	{da
16g#)	|
=9	=9
8.g#	we-
16g#	-hen
8g#	die
=10	=10
8.cc#	Zwei-
16g#	-ge,
8g#	die
=11	=11
4b	Blu-
8a#	-men
=12	=12
4g#}	blu2h'n,}
{16g#	{durch
16g#	die
=13	=13
(8a	Wip-
8g#)	|
8f#	-fel
=14	=14
8g#	lacht
8e	uns
8B	in's
=15	=15
(8d#	Herz
8c#)	|
8B	hin-
=16	=16
4e}	-ein}
{8g#	{das
=17	=17
4cc#	Him-
8b	-mel-
=18	=18
8.a	-blau
16g#	und
8f#	der
=19	=19
4dd#	Son-
8cc#	-nen-
=20	=20
4b}	-schein}
{8an	{im
=21	=21
4g#	Wald',
8b	im
=22	=22
(8ee	ku2h-
8g#)	|
8a	-len
=23	=23
4.b	Wal-
=24	=24
4e}	-de.}
8r	.
=26	=26
4r	.
{8g#	{Im
=27	=27
4b	Wald',
8b	im
=28	=28
4ee	Wald'
16g#	ist
16g#	der
=29	=29
4b	Lie-
8b	-be
=30	=30
4g#}	Reich,}
{(16e	{da
16f#)	|
=31	=31
8.g#	sin-
16g#	-gen
8g#	die
=32	=32
8.cc#	Vo2g-
16g#	-lein
8g#	auf
=33	=33
4b	je-
8a#	-dem
=34	=34
4g#}	Zweig,}
{8g#	{da
=35	=35
(8an	wiegt
8g#)	|
8f#	die
=36	=36
8.g#	Blu-
16e	-men
8B	ein
=37	=37
8d#	ko-
8c#	-sen-
8B	-der
=38	=38
4e}	Wind,}
{16g#	{und
16g#	ich
=39	=39
4cc#	weig'
8b	und
=40	=40
8.a	ku2s-
16g#	-se
8f#	dich,
=41	=41
4dd#	herz'-
8cc#	-ges
=42	=42
4b}	Kind,}
{8a	{im
=43	=43
4g#	Wald'
8b	im
=44	=44
8ee	ku2h-
8g#	|
8a	-len
=45	=45
4.b	Wal-
=46	=46
4e}	-de.}
8r	.
=48	=48
4r	.
{8g#	{Glu2ht
=49	=49
4b	roth
16b	durch
16b	die
=50	=50
8ee	Zwei-
8g#	-ge
8a	der
=51	=51
4b	A-
8d#	-bend-
=52	=52
4e}	-schein,}
{8f#	{und
=53	=53
(8.g#	da2m-
bq	|
16a)	|
8g#	-mert
=54	=54
8.cc#	lei-
16g#	-se
8g#	die
=55	=55
4b	Nacht
8a#	her-
=56	=56
4g#}	-ein:}
8r	.
=57	=57
{8an	{dann
8g#	zieh'n
8f#	wir
=58	=58
(8g#	heim,
8e)	|
8b	dann
=59	=59
(8d#	klingt
eq	|
d#q	|
8c#)	|
8B	und
=60	=60
(4e	blu2ht
8g#)}	|}
=61	=61
{8cc#	{Wald-
8g#	-lust,
8b	Wald-
=62	=62
8.a	-rau-
16g#	-schen
8f#	noch
=63	=63
4dd#	durch's
8cc#	Ge-
=64	=64
4b}	-mu2th}
{8an	{vom
=65	=65
4g#	Wald',
8b	vom
=66	=66
4ee	ku2h-
8a#	-len
=67	=67
4.b	Wal-
=68	=68
4e}	-de.}
8r	.
*-	*-
